X: 1
T:N°80
N:page 98
S:Manuscrit Wandembrile (1778), Archives de l'Etat à Namur
Z:ABC transcription Olivier VIENNE troubadourwallon@gmail.com
K:Dmaj
M:2/4
[V:1]
L:1/16
"Violino primo"
f4 e4|d2cB A4|d2df e2eg|f4 e4|f2fa e2eg|!p!f2fa e2eg|!f!f2ed c2d2|eaec A2A2|
f4 e4|d2cB A4|d2df e2eg|f4 e4|f2fa e2eg|!p!f2fa e2eg|!f!f2ed e2c2|d4 d4:|
|:e4 f4|edcB A2A2|!p!e4f4|edcB A2A2|!f!a4 b4|agfe d2d2|
a4 b4|agfe d2A2|!f!d2df e2eg|f2fa d2df|e2eg fedc|d4 D4:|]
[V:2]
L:1/16
"Violino Secundo"
d4 A4|B2AG F4|F2Fd c2BA|d4 c4|d2df c2ce|d2df c2ce|d2cB A2^G2|c2cB A2A2|
d4 A4|B2AG F4|F2Fd c2BA|d4 c4|d2df c2ce|d2df c2ce|d2AB A2G2|F4 F4:|
|:c4 d4|cBA^G A2A2|c4 d4|cBA^G A2A2|f4 g4|fedc d2A2|
f4 g4|fedc d2A2|F2FG G2GB|A2Ac F2Fc|G2GB AGFE|F4 F4:|]





